pix_plugins/assignfeedback/editpdf/comment_search.svg

<!DOCTYPE svg PUBLIC "-//W3C//DTD SVG 1.1//EN" "http://www.w3.org/Graphics/SVG/1.1/DTD/svg11.dtd" [
	<!ENTITY ns_flows "http://ns.adobe.com/Flows/1.0/">
]><svg xmlns="http://www.w3.org/2000/svg" width="16" height="16" viewBox="0 0 16 16" preserveAspectRatio="xMinYMid meet" overflow="visible"><path d="M8.5 16h-7.5c-.5 0-1-.5-1-1v-2.5c1 1.5 2.7 2.5 4.7 2.5.8 0 1.6-.2 2.3-.5l1.5 1.5zm6.5-16h-14c-.5 0-1 .5-1 1v5.2c.7-1.1 1.8-1.9 3-2.3v-.9h10v1h-6.4c.6.2 1.2.6 1.7 1h4.7v1h-3.7c.2.3.4.6.6 1h3.1v1h-2.8c.1.3.1.7.1 1h2.7v1h-2.7c-.1.5-.2.9-.3 1.3v.5l1.7 1.7c.7.7.8 1.7.3 2.5h3c.5 0 1-.5 1-1v-14c0-.5-.5-1-1-1zm-4 15.7c-.4.4-1 .4-1.4 0l-2.2-2.2c-.1-.1-.1-.1-.1-.2-.8.4-1.7.7-2.6.7-2.6 0-4.7-2.1-4.7-4.7s2.1-4.7 4.7-4.7 4.7 2.1 4.7 4.7c0 1-.3 1.9-.8 2.6 0 .1.1.1.2.1l2.2 2.2c.4.4.4 1.1 0 1.5zm-3.6-6.4c0-1.5-1.2-2.7-2.7-2.7-1.5.1-2.7 1.3-2.7 2.7 0 1.5 1.2 2.7 2.7 2.7 1.5 0 2.7-1.2 2.7-2.7z" fill="#999"/></svg>

<!DOCTYPE svg PUBLIC "-//W3C//DTD SVG 1.1//EN" "http://www.w3.org/Graphics/SVG/1.1/DTD/svg11.dtd" [
	<!ENTITY ns_flows "http://ns.adobe.com/Flows/1.0/">
]><svg xmlns="http://www.w3.org/2000/svg" width="16" height="16" viewBox="0 0 16 16" preserveAspectRatio="xMinYMid meet" overflow="visible"><path d="M8.5 16H1c-.5 0-1-.5-1-1v-2.5C1 14 2.7 15 4.7 15c.8 0 1.6-.2 2.3-.5L8.5 16zM15 0H1C.5 0 0 .5 0 1v5.2c.7-1.1 1.8-1.9 3-2.3V3h10v1H6.6c.6.2 1.2.6 1.7 1H13v1H9.3c.2.3.4.6.6 1H13v1h-2.8c.1.3.1.7.1 1H13v1h-2.7c-.1.5-.2.9-.3 1.3v.5l1.7 1.7c.7.7.8 1.7.3 2.5h3c.5 0 1-.5 1-1V1c0-.5-.5-1-1-1zm-4 15.7c-.4.4-1 .4-1.4 0l-2.2-2.2c-.1-.1-.1-.1-.1-.2-.8.4-1.7.7-2.6.7C2.1 14 0 11.9 0 9.3s2.1-4.7 4.7-4.7 4.7 2.1 4.7 4.7c0 1-.3 1.9-.8 2.6 0 .1.1.1.2.1l2.2 2.2c.4.4.4 1.1 0 1.5zM7.4 9.3c0-1.5-1.2-2.7-2.7-2.7C3.2 6.7 2 7.9 2 9.3 2 10.8 3.2 12 4.7 12c1.5 0 2.7-1.2 2.7-2.7z" fill="#999"/></svg>
